X: 449
T: Xiangqinqin xiangde jianbushang mian
%%abc-version 2.0
%%abcx-abcm2ps-target-version 5.9.1 (29 Sep 2008)
%%abc-creator hum2abc beta
%%abcx-conversion-date 2013/10/02 07:52:30
%%abc-edited-by Helmut Schaffrath
%%humdrum-veritas 1422954588
%%humdrum-veritas-data 1371997155
%%continueall 1
%%barnumbers 0
L: 1/8
M: 2/4
K: F
dd2d/ e/ [I:setbarnb 1]| 
d cA2 | 
A c d f/ e/ | 
d4 | 
dd2d/ e/ | 
d cA2 | 
A c d c | 
AG3 |]  



